X:100
T:Hunt the Hare
M: C|
L:1/8
B:Thompson's Compleat Collection of 200 Favourite Country Dances, vol. 3 (London, 1773)
Z:Transcribed and edited by Flynn Titford-Mock, 2007
Z:abc's:AK/Fiddler's Companion
K:D
DFAd cABG | FDAF EDEF | DFAd cABG | FDEc d2D2 :|
|: dfaf gefd | cAce gecA | d(f/g/a)f gefd | cAec d2D2 :|

